X:13
T:Wragg’s Duetto the 30th.A March.2voices. RH.013
R:march
S:Rev.R.Harrison’s MS,c1815,Cumbria
O:England
A:Temple Sowerby,Cumbria
Z:vmp.Simon Wilson. Review PJH, 2008.
M:C
L:1/8
Q:2/4=75
K:G
[V:1]|:d2|g2g>a b2d’/(b/a/g/)|a2d>d d2zd|a2a>b c’2b>a|
[V:2]|:G2|B2B>c d2B2|A2D>D D2z2|f2f>g a2g>f|
%
[V:1] a>c’ d’/c’/b/a/ g2b>c’|d’2g>g gabg|a2d>d d2d’>c’|(c’b)(ag) (e’d’)(c’b)|a2a>a a2:|
[V:2] (g>a) (b/a/g/f/) g2g>a|b2b>b b2g2|a2f>f f2d2|(ag)(fe) (c’b)(ag)|d2d>d d2:|
%
[V:1]|:d2|a2a>b c’2b>a|b2g>g g2zd|a2a>b c’2b>a|
[V:2]|:d2|f2f>g a2g>f|g2B>B B2zd|f2f>g a2g>f|
%
[V:1] d’2b>b b2z2|d’8|c’8|b2d’2 (e’d’)(c’b)|a2a>a a2z2|
[V:2] b2g>g g2z2|b2b>b bd’bg|a2a>a ac’af|g2b2 (c’b)(ag)|d2d>dd2z2|
%
[V:1] b2b>b bd’bg|a2a>a ac’af|g2b2 (c’b)(ag)|f2f>f f2z2|d’3c’ b2b2|c’3b a2a2|
[V:2] d’8|c’8|b2c’2 (e’d’)(c’b)|a2a>a a2z2|b3a g2g2|a3g d2z2|
%
[V:1] d’3c’ b2b2|c’3b a2a2|g2g>g a2a>a|b2b>b c’2c’>c’|d’3c’ b2a2|g2g>g g2:|
[V:2] b3a g2g2|a3g d2z2|z8|g2g>g a2a>a|b3a g2d2|B2B>B B2:|

